X: 20892
T: NOBODY COMING TO MARRY ME
Q: "Plaintive"
%R: jig
B: "Edinburgh Repository of Music" v.2 p.89 #2
F: http://digital.nls.uk/special-collections-of-printed-music/pageturner.cfm?id=87776133
Z: 2015 John Chambers <jc:trillian.mit.edu>
M: 6/8
L: 1/8
K: F
c |\
A2c c2f | f3 zza | agf {g}fef | g3 g2c |\
f2f gfg | a3- a2c' | c'af {g}fef | g3- g2c |\
f2f {a}gfg | abc' abc' |
f2f {a}gfg | a3- a2c |\
fff {a}gfg | abc' abc' | c>dc cde | f3- fga |\
b3- bag | c'3- c'af | c>dc cde | f3 f2 |]
